dist/icons/svgs/table-list-outline.svg

<svg xmlns="http://www.w3.org/2000/svg" width="24" height="24" fill="currentcolor" class="icon-table-list-outline" viewBox="0 0 24 24">
  <path d="M9.5 5.125V8.5625H20.125V5.75C20.125 5.4375 19.8125 5.125 19.5 5.125H9.5ZM7.625 5.125H4.5C4.14844 5.125 3.875 5.4375 3.875 5.75V8.5625H7.625V5.125ZM3.875 10.4375V13.5625H7.625V10.4375H3.875ZM3.875 15.4375V18.25C3.875 18.6016 4.14844 18.875 4.5 18.875H7.625V15.4375H3.875ZM9.5 18.875H19.5C19.8125 18.875 20.125 18.6016 20.125 18.25V15.4375H9.5V18.875ZM20.125 13.5625V10.4375H9.5V13.5625H20.125ZM2 5.75C2 4.38281 3.09375 3.25 4.5 3.25H19.5C20.8672 3.25 22 4.38281 22 5.75V18.25C22 19.6562 20.8672 20.75 19.5 20.75H4.5C3.09375 20.75 2 19.6562 2 18.25V5.75Z"/>
</svg>

<svg xmlns="http://www.w3.org/2000/svg" width="24" height="24" fill="currentColor" class="icon-table-list-outline" viewBox="0 0 24 24">
  <path d="M9.5 5.125v3.438h10.625V5.75c0-.312-.312-.625-.625-.625zm-1.875 0H4.5a.64.64 0 0 0-.625.625v2.813h3.75zm-3.75 5.313v3.124h3.75v-3.124zm0 5v2.812c0 .352.273.625.625.625h3.125v-3.437zM9.5 18.875h10a.64.64 0 0 0 .625-.625v-2.812H9.5zm10.625-5.312v-3.126H9.5v3.126zM2 5.75c0-1.367 1.094-2.5 2.5-2.5h15c1.367 0 2.5 1.133 2.5 2.5v12.5c0 1.406-1.133 2.5-2.5 2.5h-15a2.47 2.47 0 0 1-2.5-2.5z"/>
</svg>
